tools/download-figma-icons/icons/outlined-medium/electric-tower.svg

<svg width="24" height="24" viewBox="0 0 24 24" fill="none" xmlns="http://www.w3.org/2000/svg">
<path fill-rule="evenodd" clip-rule="evenodd" d="M11.6411 20.3795L15.5396 22.4998H7.74191L11.6411 20.3795ZM6.90043 17.8011L10.0706 19.5253L5.92469 21.7798L6.90043 17.8011ZM8.58939 10.9162L10.4509 12.4266L7.66315 14.6894L8.58939 10.9162ZM8.8924 2.90622L10.6841 5.16895L8.8924 7.43168V2.90622ZM11.6404 3.95996L9.69263 1.49998H13.5888L11.6404 3.95996ZM14.3891 7.43168L12.5974 5.16895L14.3891 2.90622V7.43168ZM9.69263 8.83791L11.6404 6.37719L13.5888 8.83791H9.69263ZM13.0249 10.3379L11.6411 11.4606L10.2566 10.3379H13.0249ZM12.8314 12.4266L14.6929 10.9162L15.6183 14.6886L12.8314 12.4266ZM11.6411 18.6718L7.74715 16.5531L11.6411 13.3934L15.5351 16.5531L11.6411 18.6718ZM16.3811 17.8011L17.3568 21.7798L13.2116 19.5253L16.3811 17.8011ZM21.0318 22.4998H19.078L15.8891 9.49565V7.58917L19.1118 9.14691V9.93815H18.3618C17.9471 9.93815 17.6118 10.2734 17.6118 10.6881C17.6118 11.1029 17.9471 11.4381 18.3618 11.4381H19.8618C20.2765 11.4381 20.6118 11.1029 20.6118 10.6881V8.67666C20.6118 8.38942 20.4468 8.12692 20.188 8.00167L15.8891 5.92344V1.94548L19.1118 3.50321V4.29446H18.3618C17.9471 4.29446 17.6118 4.6297 17.6118 5.04445C17.6118 5.45844 17.9471 5.79444 18.3618 5.79444H19.8618C20.2765 5.79444 20.6118 5.45844 20.6118 5.04445V3.03297C20.6118 2.74497 20.4468 2.48322 20.188 2.35798L15.4661 0.0749992C15.4601 0.0719993 15.4541 0.0727493 15.4481 0.0704993C15.4271 0.0607494 15.4046 0.0562494 15.3813 0.0494995C15.3393 0.0344996 15.2966 0.0269997 15.2523 0.0202498C15.2201 0.0157498 15.1893 0.00449995 15.1578 0.00374996C15.1518 0.00374996 15.1458 0 15.1391 0H8.14241C8.13566 0 8.13041 0.00374996 8.12366 0.00374996C8.09291 0.00449995 8.06291 0.0157498 8.03141 0.0202498C7.98566 0.0269997 7.94216 0.0337497 7.89866 0.0494995C7.87616 0.0562494 7.85441 0.0607494 7.83341 0.0704993C7.82741 0.0727493 7.82141 0.0719993 7.81541 0.0749992L3.09421 2.35798C2.83546 2.48322 2.67046 2.74497 2.67046 3.03297V5.04445C2.67046 5.45844 3.00571 5.79444 3.42045 5.79444H4.92044C5.33518 5.79444 5.67043 5.45844 5.67043 5.04445C5.67043 4.6297 5.33518 4.29446 4.92044 4.29446H4.17045V3.50321L7.39241 1.94623V5.92344L3.09421 8.00167C2.83546 8.12692 2.67046 8.38942 2.67046 8.67666V10.6881C2.67046 11.1029 3.00571 11.4381 3.42045 11.4381H4.92044C5.33518 11.4381 5.67043 11.1029 5.67043 10.6881C5.67043 10.2734 5.33518 9.93815 4.92044 9.93815H4.17045V9.14691L7.39241 7.58992V9.49565L4.20345 22.4998H2.25047C1.83572 22.4998 1.50047 22.835 1.50047 23.2498C1.50047 23.6645 1.83572 23.9998 2.25047 23.9998H4.79219H18.4893H21.0318C21.4458 23.9998 21.7818 23.6645 21.7818 23.2498C21.7818 22.835 21.4458 22.4998 21.0318 22.4998Z" fill="black"/>
</svg>

<svg width="24" height="24" viewBox="0 0 24 24" fill="none" xmlns="http://www.w3.org/2000/svg"><path fill-rule="evenodd" clip-rule="evenodd" d="m11.641 20.38 3.899 2.12H7.742l3.9-2.12Zm-4.74-2.58 3.17 1.724-4.146 2.255L6.9 17.8Zm1.688-6.885 1.862 1.51-2.788 2.263.926-3.773Zm.303-8.01 1.792 2.263-1.792 2.263V2.906ZM11.64 3.96 9.693 1.5h3.896L11.64 3.96Zm2.75 3.472-1.793-2.263 1.792-2.263v4.526ZM9.692 8.838l1.947-2.46 1.949 2.46H9.693Zm3.332 1.5L11.64 11.46l-1.384-1.123h2.768Zm-.194 2.089 1.862-1.51.925 3.772-2.787-2.262Zm-1.19 6.245-3.894-2.119 3.894-3.16 3.894 3.16-3.894 2.119Zm4.74-.87.976 3.978-4.145-2.255 3.17-1.724Zm4.65 4.698h-1.953L15.889 9.496V7.589l3.223 1.558v.791h-.75a.75.75 0 1 0 0 1.5h1.5a.75.75 0 0 0 .75-.75V8.677a.75.75 0 0 0-.424-.675l-4.299-2.079V1.945l3.223 1.558v.791h-.75a.75.75 0 1 0 0 1.5h1.5a.75.75 0 0 0 .75-.75V3.033a.75.75 0 0 0-.424-.675L15.466.075c-.006-.003-.012-.002-.018-.005-.02-.01-.043-.014-.067-.02a.683.683 0 0 0-.129-.03c-.032-.004-.063-.016-.094-.016-.006 0-.012-.004-.019-.004H8.142c-.006 0-.012.004-.018.004-.031 0-.061.012-.093.016A.666.666 0 0 0 7.9.05c-.023.006-.045.01-.066.02-.006.003-.012.002-.018.005l-4.72 2.283a.75.75 0 0 0-.425.675v2.011c0 .414.336.75.75.75h1.5a.75.75 0 1 0 0-1.5h-.75v-.79l3.222-1.558v3.977L3.094 8.002a.75.75 0 0 0-.424.675v2.011c0 .415.336.75.75.75h1.5a.75.75 0 1 0 0-1.5h-.75v-.791L7.392 7.59v1.906L4.203 22.5H2.25a.75.75 0 1 0 0 1.5h18.782a.75.75 0 1 0 0-1.5Z" fill="currentColor"/></svg>
